src/assets/images/intro-icon-2.svg

<svg width="27" height="27" viewBox="0 0 27 27" fill="none" xmlns="http://www.w3.org/2000/svg">
<path fill-rule="evenodd" clip-rule="evenodd" d="M13.5293 2.25C7.33163 2.25 2.3085 7.27313 2.3085 13.4707C2.3085 18.4275 5.52263 22.6339 9.98213 24.1189C10.5435 24.2201 10.746 23.8748 10.746 23.5778C10.746 23.3111 10.737 22.6046 10.7336 21.6697C7.61175 22.347 6.9525 20.1645 6.9525 20.1645C6.444 18.8685 5.70713 18.5231 5.70713 18.5231C4.689 17.8268 5.78475 17.8425 5.78475 17.8425C6.912 17.9212 7.50263 18.999 7.50263 18.999C8.50388 20.7135 10.1306 20.2185 10.7674 19.9316C10.8698 19.206 11.1623 18.711 11.4818 18.4309C8.991 18.1485 6.372 17.1855 6.372 12.8846C6.372 11.6618 6.80963 10.6582 7.524 9.87525C7.41038 9.59062 7.02225 8.44875 7.63538 6.90525C7.63538 6.90525 8.577 6.60262 10.7201 8.05387C11.6354 7.80488 12.5796 7.67778 13.5281 7.67587C14.4767 7.67741 15.4209 7.80452 16.3361 8.05387C18.4804 6.6015 19.4209 6.90525 19.4209 6.90525C20.034 8.44875 19.6493 9.59062 19.5323 9.87525C20.2523 10.6582 20.6843 11.6606 20.6843 12.8846C20.6843 17.1968 18.063 18.144 15.5633 18.4219C15.9626 18.7684 16.3226 19.4524 16.3226 20.4986C16.3226 21.9994 16.3091 23.2099 16.3091 23.5778C16.3091 23.8781 16.5094 24.2269 17.082 24.1166C21.5393 22.6294 24.75 18.4264 24.75 13.4707C24.75 7.27313 19.7269 2.25 13.5293 2.25Z" fill="white"/>
</svg>

<svg xmlns="http://www.w3.org/2000/svg" width="27" height="27" fill="none"><path fill="#fff" fill-rule="evenodd" d="M13.53 2.25c-6.198 0-11.221 5.023-11.221 11.22 0 4.957 3.214 9.164 7.673 10.649.562.101.764-.244.764-.541 0-.267-.009-.973-.012-1.908-3.122.677-3.782-1.506-3.782-1.506-.508-1.296-1.245-1.64-1.245-1.64-1.018-.697.078-.681.078-.681 1.127.078 1.718 1.156 1.718 1.156 1 1.715 2.628 1.22 3.264.933.103-.726.395-1.221.715-1.501-2.491-.283-5.11-1.245-5.11-5.546 0-1.223.438-2.227 1.152-3.01-.114-.284-.502-1.426.111-2.97 0 0 .942-.302 3.085 1.149a10.78 10.78 0 0 1 2.808-.378c.949.001 1.893.129 2.808.378 2.144-1.453 3.085-1.149 3.085-1.149.613 1.544.228 2.686.111 2.97.72.783 1.152 1.786 1.152 3.01 0 4.312-2.621 5.259-5.12 5.537.399.346.759 1.03.759 2.077 0 1.5-.014 2.71-.014 3.079 0 .3.2.649.773.539 4.457-1.488 7.668-5.69 7.668-10.646 0-6.198-5.023-11.221-11.22-11.221Z" clip-rule="evenodd"/></svg>
